!!!OTL: Maggy Lauder 
!!!id: HA035
**kern
*clefG2
*k[b-e-]
*B-:
*M2/2
{8.bb-
16ccc
8bb-
8ccc
8.bb-
16cc
8bb-}
{8ddd
=2
8.ccc
16ddd
16eee-
16ddd
16ccc
16bb-
4aa
8.ccc}
{16eee-
=3
8ddd
8bb-
8bb-
8ff
8.bb-
16ccc
8bb-}
{8ddd
=4
8.fff
16ggg
8fff
8eee-
4ddd
8.fff}
{16fff
=5
8.eee-
16fff
8eee-
8ggg
8.ddd
16eee-
8ddd}
{8fff
=6
8.ccc
16ddd
16eee-
16ddd
16ccc
16bb-
4aa
8ccc}
{8ccc
=7
16bb-
16aa
16gg
16ff
16gg
16ff
16ee-
16dd
16ee-
16dd
16cc
16b-
8.cc}
{16eee-
=8
16ddd
16eee-
8fff
8.ccc
16ddd
4bb-
4b-}
=9yy
{16ddd
16eee-
8fff
8bb-
8eee-
16ddd
16eee-
16fff
16ddd
8bb-}
{8ddd
=10
8.ccc
16ddd
16eee-
16ddd
16ccc
16bb-
4aa
8.ccc}
{16ccc
=11
16ddd
16eee-
8fff
8bb-
8eee-
16ddd
16eee-
8fff
8.bb-}
{16ddd
=12
8.fff
16ggg
16fff
16ggg
16fff
16eee-
4ddd
8.fff}
{16fff
=13
8.eee-
16fff
8eee-
8ggg
8.ddd
16eee-
8ddd}
{8fff
=14
8.ccc
16ddd
16eee-
16ddd
16ccc
16bb-
4aa
8.ccc}
{16ccc
=15
16bb-
16aa
16gg
16ff
16gg
16ff
16ee-
16dd
16ee-
16dd
16cc
16b-
8.cc}
{16eee-
=16
16ddd
16eee-
8fff
8.ccc
16ddd
4bb-
4b-}
==
*-
!!!minrhy: 16
!!!meter: 2/2 
!!!cut: Maggy Lauder 
!!!key: HA035  16 Bb 2/2 
!!!bem: Vorschlge
!!!fog: a--b--c--d--e--f--g--h--i--b--iv-dv-e--fv-g--h--
!! Haydn: Volksliedbearbeitungen, Bd1
